src/assets/logos/fractal.svg

<svg height="266" viewBox="0 0 253 266" width="253" xmlns="http://www.w3.org/2000/svg"><path d="m247.258984.33402037c3.019932 0 5.465054 2.42752089 5.465054 5.422542 0 2.99286347-2.445122 5.41606863-5.465054 5.41606863h-121.45265c-13.767145 0-26.0667815 8.5340842-30.7893714 21.3535517-10.1375646 27.5248489-18.1457189 49.266804-24.0222845 65.2215503 3.8669065-2.1016945 8.0691185-3.6294146 12.4803536-4.4925329l18.3786913-49.8968802c4.72259-12.8173098 17.024404-21.3513939 30.789371-21.3513939h106.805871c3.015577 0 5.462876 2.4275207 5.462876 5.4182264 0 2.9928633-2.447299 5.4160685-5.462876 5.4160685h-106.805871c-9.175194 0-17.377127 5.6901088-20.525521 14.2371398l-16.7043393 45.3525621h10.6797163l12.732921-34.5635809c3.165812-8.6031336 11.417826-14.3277671 20.656161-14.3277671h91.769353c3.091783 0 5.600047 2.4900968 5.600047 5.5541675 0 3.0662285-2.508264 5.5520097-5.600047 5.5520097h-91.769353c-4.533163 0-8.582965 2.807293-10.137566 7.0301003l-11.328555 30.7550705h95.481671c3.019931 0 5.465053 2.4275198 5.465053 5.4160684 0 2.9928638-2.445122 5.4182268-5.465053 5.4182268h-121.5288557c-13.7802083 0-26.0907318 8.54703-30.800258 21.388076l-50.3960673 137.289787c-1.02986873 2.813765-4.16519824 4.263805-7.00223594 3.238851-2.8326831-1.024953-4.29801423-4.130022-3.26379087-6.943788l46.90148121-127.782536c.4637675-1.424146.9993863-2.964813 1.6090337-4.624158 7.9428347-21.562857 19.850555-53.8995922 35.7362251-97.0253079 6.2989631-17.0962198 22.6984788-28.47212173 41.0532198-28.47212173zm-50.41641 138.90217563c2.966582 0 5.371581 2.414295 5.371581 5.396538 0 2.97805-2.404999 5.388155-5.371581 5.388155h-87.880584c-4.348622 0-8.231693 2.734944-9.7222917 6.838408l-38.1396927 105.1036c-1.014609 2.799913-4.0981017 4.241784-6.883057 3.219062-2.787043-1.016437-4.2212742-4.111848-3.2066654-6.911761l38.1396936-105.107792c3.035475-8.362012 10.9477542-13.92621 19.8120132-13.92621zm12.506602-25.25494c3.030694 0 5.49245 2.429381 5.49245 5.424538 0 2.990838-2.461756 5.420219-5.49245 5.420219h-107.321611c-9.2299426 0-17.4795599 5.700949-20.6371723 14.263168l-45.3094356 122.855439c-1.039408 2.811604-4.1904553 4.262754-7.0373392 3.237015-2.8512602-1.027898-4.3195607-4.137506-3.2801527-6.94911l45.3094358-122.853278c4.7396995-12.848729 17.1097501-21.397991 30.954664-21.397991z"/></svg>

<svg xmlns="http://www.w3.org/2000/svg" width="253" height="266" viewBox="0 0 253 266">
  <path d="M247.258984,0.334020367 C250.278916,0.334020367 252.724038,2.76154126 252.724038,5.75656237 C252.724038,8.74942584 250.278916,11.172631 247.258984,11.172631 L125.806334,11.172631 C112.039189,11.172631 99.7395525,19.7067152 95.0169626,32.5261827 C84.879398,60.0510316 76.8712437,81.7929867 70.9946781,97.747733 C74.8615846,95.6460385 79.0637966,94.1183184 83.4750317,93.2552001 L101.853723,43.3583199 C106.576313,30.5410101 118.878127,22.006926 132.643094,22.006926 L239.448965,22.006926 C242.464542,22.006926 244.911841,24.4344467 244.911841,27.4251524 C244.911841,30.4180157 242.464542,32.8412209 239.448965,32.8412209 L132.643094,32.8412209 C123.4679,32.8412209 115.265967,38.5313297 112.117573,47.0783607 L95.4132337,92.4309228 L106.09295,92.4309228 L118.825871,57.8673419 C121.991683,49.2642083 130.243697,43.5395748 139.482032,43.5395748 L231.251385,43.5395748 C234.343168,43.5395748 236.851432,46.0296716 236.851432,49.0937423 C236.851432,52.1599708 234.343168,54.645752 231.251385,54.645752 L139.482032,54.645752 C134.948869,54.645752 130.899067,57.453045 129.344466,61.6758523 L118.015911,92.4309228 L213.497582,92.4309228 C216.517513,92.4309228 218.962635,94.8584426 218.962635,97.8469912 C218.962635,100.839855 216.517513,103.265218 213.497582,103.265218 L91.9687263,103.265218 C78.188518,103.265218 65.8779945,111.812248 61.1684683,124.653294 L10.772401,261.943081 C9.74253227,264.756846 6.60720276,266.206886 3.77016506,265.181932 C0.937481962,264.156979 -0.527849171,261.05191 0.506374188,258.238144 L47.4078554,130.455608 C47.8716229,129.031462 48.4072417,127.490795 49.0168891,125.83145 C56.9597238,104.268593 68.8674441,71.9318578 84.7531142,28.8061421 C91.0520773,11.7099223 107.451593,0.334020367 125.806334,0.334020367 L247.258984,0.334020367 Z M196.842574,139.236196 C199.809156,139.236196 202.214155,141.650491 202.214155,144.632734 C202.214155,147.610784 199.809156,150.020889 196.842574,150.020889 L108.96199,150.020889 C104.613368,150.020889 100.730297,152.755833 99.2396983,156.859297 L61.1000056,261.962897 C60.0853966,264.76281 57.0019039,266.204681 54.2169486,265.181959 C51.4299056,264.165522 49.9956744,261.070111 51.0102832,258.270198 L89.1499768,153.162406 C92.1854518,144.800394 100.097731,139.236196 108.96199,139.236196 L196.842574,139.236196 Z M209.349176,113.981256 C212.37987,113.981256 214.841626,116.410637 214.841626,119.405794 C214.841626,122.396632 212.37987,124.826013 209.349176,124.826013 L102.027565,124.826013 C92.7976224,124.826013 84.5480051,130.526962 81.3903927,139.089181 L36.0809571,261.94462 C35.0415491,264.756224 31.8905018,266.207374 29.0436179,265.181635 C26.1923577,264.153737 24.7240572,261.044129 25.7634652,258.232525 L71.072901,135.379247 C75.8126005,122.530518 88.1826511,113.981256 102.027565,113.981256 L209.349176,113.981256 Z"/>
</svg>
